X: 89
T:Newlywed Reel
M:C|
L:1/8
R:Reel
K:G
BG AG EG DG|BG AB ce dc|BG AG EG DG|BG AF G2|!
BG AG EG DG|BG AB ce dc|BG AG EG DG|BG AF G2:|!
g2 fg ed ef|ge dc BG ef|g2 fg ed Bd|ea ag fd eg|!
2 fg ed ef|ge dc BG G2|DE GA BG Af|G4:|
